src/front_assets/svg/cloud-bolt.svg

<svg width="800px" height="800px" viewBox="0 0 24 24" fill="none" xmlns="http://www.w3.org/2000/svg">
<path d="M13 11L10 16H15L12 21M6 16.4438C4.22194 15.5683 3 13.7502 3 11.6493C3 9.20008 4.8 6.9375 7.5 6.5C8.34694 4.48637 10.3514 3 12.6893 3C15.684 3 18.1317 5.32251 18.3 8.25C19.8893 8.94488 21 10.6503 21 12.4969C21 14.0582 20.206 15.4339 19 16.2417" stroke="#1C274C" stroke-width="2" stroke-linecap="round" stroke-linejoin="round"/>
</svg>

<svg xmlns="http://www.w3.org/2000/svg" width="800" height="800" fill="none" viewBox="0 0 24 24"><path stroke="#1C274C" stroke-linecap="round" stroke-linejoin="round" stroke-width="2" d="m13 11-3 5h5l-3 5m-6-4.556a5.35 5.35 0 0 1-3-4.795C3 9.2 4.8 6.938 7.5 6.5 8.347 4.486 10.351 3 12.69 3c2.994 0 5.442 2.323 5.61 5.25 1.59.695 2.7 2.4 2.7 4.247a4.5 4.5 0 0 1-2 3.745"/></svg>
